X:4
T:Rambling Pitchfork, The
R:jig
E:10
M:6/8
I:speed 350
K:D
DE|~F3 AFF|=cFF AFD|~G3 ABc|ded cAG|\
EFF AFF|=cFF AFD|GFG BGB|AFD D2:|*
A|d2e fdf|ecA AFA|d2e fed|(4fgaf gfe|\
d2e fdf|ecA AGF|~G3 BGB|AFD D2:|**
<end>
<start>
